!!!OTL: Jung Franzosenblut (2-56) S. 177
!!!id: P0929
**kern
*clefG2
*k[]
*C:
{4g
=1
4.cc
8g
8g
8f
8e
8d
=2
4c
4e
4e}
=3
{4e
=4
4d
4cc
4cc
8b
8a
=5
4g
4f#
4g}
=6
{8g
8f#
=7
4e
8e
8e
8e
8f
8g
8a
=8
4g
8f
8e
4f}
=9
{8f
8e
=10
4d
4d
4d
8c
8e
=11
4.g
8g
4g
4g
=12
2g}
=13
{4.g
8cc
=14
4.cc
8g
8a
8g
8f
8e
=15
2a}
=16
{4.cc
8dd
=17
4.cc
8g
8a
8g
8f
8d
=18
2c}
4r
==
*-
!!!minrhy: 8
!!!meters: 4/4 ]  ZZ[6
!!!cut: Jung Franzosenblut (2-56) S. 177
!!!reg: Lothringen
!!!trd: PINCK, Louis: Verklingende Weisen, Bd 2, Metz 1928
!!!rhy1: X_  X_.XXXXX  X_X_X_
!!!rhy2: X_  X_X_X_XX  X_X_X_
!!!key: P0929  08  C 4/4 ]  ZZ[6
!!!mod: ACHTTONSKALA DUR ?]  AMBITUS[9
!!!kad: 354561
!!!akz: +1513_2+155_3354_22555_5+166_+1+161_
!!!fot: 'a__b__c__d__e__f__
!!!for: 'a__b__c__d__aw_aw_
!!!fok: '~d_^a_Sd_Va_~a_\__
!! PHRAS[AUFTAKTIG]
!!!fkt: Soldatenlied
!! LOTH VKL
!! PR[17] 2K[3] 2G[14] 3K[3] 3G[3] 4A[11] 4Ü[0] 5A[0] 6K[0] 6G[0]
!! 7K[0] 7G[0] 8A[0] MEHR[0] SI[33] ABS[36] SR[17] SP[17]
!! ST[9] 2k[11] 2g[25] 3k[0] 3g[6] 4d[8] 4ü[0] 5d[0] 6k[0] 6g[0]
!! 7k[0] 7g[0] 8d[0] mehr[0] si[50] dm[-17] sr[36] sp[14]
!! 1F[35] 2F[58] 3F[8] 4F[0] LF[0] 2P[0] 3P[0] 4P[0] TRI[0] DF[3] AB[40]
!! TF[0] U3K[0] U3[0] U4[0] U4Ü[0] U5[0] U6K[0] U6[0] U7K[16] U7[3]
!! N1[16] N2K[0] N2[11] N3K[24] N3[0] N4[16] N4Ü[0] N5[14] N6K[0] N6[0]
!!!n7k: 0] N7[0] O1[0] O2K[0] O2[0] O3K[0] O3[0] HÖ[0
